assets/Baby bottle/Flat/baby_bottle_flat.svg

<svg width="32" height="32" viewBox="0 0 32 32" fill="none" xmlns="http://www.w3.org/2000/svg">
<path d="M6.27 3.3L5.59 2.62C4.77 1.8 3.44 1.8 2.62 2.62C1.8 3.44 1.8 4.77 2.62 5.59L3.3 6.27C3.56 6.53 3.66 6.92 3.54 7.28L3 8.89C2.76 9.6 2.95 10.38 3.48 10.9L4.1 11.53H4.16797L8.36401 8.35511L11.53 4.19531V4.1L10.9 3.48C10.38 2.95 9.6 2.76 8.89 3L7.28 3.54C6.92 3.66 6.53 3.56 6.27 3.3Z" fill="#FCD53F"/>
<path d="M19.33 5.21998C19.32 5.20998 19.32 5.20998 19.31 5.19998L19.28 5.16998C17.7632 3.69944 15.3996 3.60606 13.7714 4.88194C13.6391 4.98558 13.1601 4.72 13.0384 4.84172L4.86837 13.0117C4.74133 13.1388 4.97573 13.6503 4.86837 13.7888C3.60675 15.4164 3.70467 17.7686 5.16998 19.28L5.21998 19.33L14.51 28.62C16.36 30.47 19.35 30.47 21.2 28.62L28.63 21.19C30.48 19.34 30.48 16.35 28.63 14.5C28.62 14.49 28.61 14.48 28.6 14.47L19.37 5.23998C19.35 5.22998 19.34 5.21998 19.33 5.21998Z" fill="#FBB8AB"/>
<path d="M18.46 6.44001C18.38 6.39001 18.31 6.33001 18.24 6.26001C17.18 5.24001 15.49 5.25001 14.45 6.29001L6.28002 14.46C5.25002 15.5 5.23002 17.2 6.25002 18.25C6.26002 18.27 6.27002 18.28 6.28002 18.29L9.21711 21.2271C9.18351 21.1856 9.21454 21.1536 9.18711 21.1093C8.82822 20.5301 8.99372 19.7411 9.60156 19.3711L22.7868 11.5247C22.9749 11.4071 23.2122 11.4063 23.4023 11.5078C23.4547 11.5358 23.5068 11.5068 23.55 11.55L18.46 6.44001Z" fill="#FFE5D9"/>
<path d="M15.55 27.57L9.30003 21.32C8.73003 20.74 8.85003 19.78 9.54003 19.36L22.79 11.46C23.03 11.31 23.35 11.35 23.55 11.55L27.54 15.58C28.8 16.83 28.8 18.88 27.54 20.14L20.11 27.57C18.85 28.83 16.81 28.83 15.55 27.57Z" fill="#F4F4F4"/>
<path d="M11.58 4.05L4.05001 11.58C3.67001 11.96 3.67001 12.59 4.05001 12.97L4.86856 13.7885C4.97587 13.6501 5.09301 13.517 5.21998 13.39L13.39 5.21998C13.5135 5.09645 13.6429 4.98222 13.7773 4.8773L12.96 4.06C12.58 3.67 11.96 3.67 11.58 4.05Z" fill="#E39D89"/>
<path d="M11.63 14.47L9.86002 16.24C9.57002 16.53 9.57002 17.01 9.86002 17.3C10.15 17.59 10.63 17.59 10.92 17.3L12.69 15.53C12.98 15.24 12.98 14.76 12.69 14.47C12.4 14.17 11.93 14.17 11.63 14.47Z" fill="#E39D89"/>
<path d="M14.99 17.83L13.22 19.6C12.93 19.89 12.93 20.37 13.22 20.66C13.51 20.95 13.99 20.95 14.28 20.66L16.05 18.89C16.34 18.6 16.34 18.12 16.05 17.83C15.76 17.53 15.29 17.53 14.99 17.83Z" fill="#E39D89"/>
<path d="M18.35 21.18L16.58 22.95C16.29 23.24 16.29 23.72 16.58 24.01C16.87 24.3 17.35 24.3 17.64 24.01L19.41 22.24C19.7 21.95 19.7 21.47 19.41 21.18C19.12 20.89 18.65 20.89 18.35 21.18Z" fill="#E39D89"/>
</svg>

<svg xmlns="http://www.w3.org/2000/svg" width="32" height="32" fill="none"><path fill="#FCD53F" d="m6.27 3.3-.68-.68a2.1 2.1 0 0 0-2.97 2.97l.68.68c.26.26.36.65.24 1.01L3 8.89c-.24.71-.05 1.49.48 2.01l.62.63h.068l4.196-3.175 3.166-4.16V4.1l-.63-.62c-.52-.53-1.3-.72-2.01-.48l-1.61.54c-.36.12-.75.02-1.01-.24Z"/><path fill="#FBB8AB" d="m19.33 5.22-.02-.02-.03-.03a4.206 4.206 0 0 0-5.509-.288c-.132.104-.61-.162-.733-.04l-8.17 8.17c-.127.127.108.638 0 .777a4.206 4.206 0 0 0 .302 5.491l.05.05 9.29 9.29a4.726 4.726 0 0 0 6.69 0l7.43-7.43a4.726 4.726 0 0 0 0-6.69l-.03-.03-9.23-9.23c-.02-.01-.03-.02-.04-.02Z"/><path fill="#FFE5D9" d="M18.46 6.44c-.08-.05-.15-.11-.22-.18a2.71 2.71 0 0 0-3.79.03l-8.17 8.17c-1.03 1.04-1.05 2.74-.03 3.79.01.02.02.03.03.04l2.937 2.937c-.033-.041-.002-.073-.03-.118a1.262 1.262 0 0 1 .415-1.738l13.185-7.846a.618.618 0 0 1 .615-.017c.053.028.105-.001.148.042l-5.09-5.11Z"/><path fill="#F4F4F4" d="M15.55 27.57 9.3 21.32c-.57-.58-.45-1.54.24-1.96l13.25-7.9a.62.62 0 0 1 .76.09l3.99 4.03a3.223 3.223 0 0 1 0 4.56l-7.43 7.43a3.223 3.223 0 0 1-4.56 0Z"/><path fill="#E39D89" d="m11.58 4.05-7.53 7.53a.99.99 0 0 0 0 1.39l.819.819c.107-.139.224-.272.351-.399l8.17-8.17c.123-.124.253-.238.387-.343l-.817-.817c-.38-.39-1-.39-1.38-.01ZM11.63 14.47l-1.77 1.77c-.29.29-.29.77 0 1.06.29.29.77.29 1.06 0l1.77-1.77c.29-.29.29-.77 0-1.06-.29-.3-.76-.3-1.06 0ZM14.99 17.83l-1.77 1.77c-.29.29-.29.77 0 1.06.29.29.77.29 1.06 0l1.77-1.77c.29-.29.29-.77 0-1.06-.29-.3-.76-.3-1.06 0ZM18.35 21.18l-1.77 1.77c-.29.29-.29.77 0 1.06.29.29.77.29 1.06 0l1.77-1.77c.29-.29.29-.77 0-1.06a.754.754 0 0 0-1.06 0Z"/></svg>
